X:1
T:Partita. No.2 (5.Rondeau) in C Minor BWV.826
T:Partita No.2 in C minor, (No.5 Rondeau) BWV.826
T:パルティータ 第2番 ハ短調 【第5曲 ロンド】 BWV.826
T:Johann Sebastian Bach (1685~1750) 
C:J.S.bach (1685~1750)
%%score { ( 1 3 ) | ( 2 4 ) }
L:1/8
Q:1/4=114
M:3/8
K:Eb
V:1 treble nm="ハープシーコード" snm="Hch."
V:3 treble 
V:2 bass 
V:4 bass 
V:1
"^Rondeau." c'cPd | e2 f | gc z | fG z | eF z | dE z | z c/=B/c/d/ | =B/=A/G z | c'cd | e2 f | %10
 gA z | fG z | eF z | dE z | z/ c/D/F/c/=B/ | c3 | E/D/E/F/G/A/ | B/e/B/A/B- | B/f/B/A/B- | %19
 B/g/B/A/B- | B/_d/c/B/A/G/ | A/c/f/c/a- | a/f/a/g/f/=e/ | f3- | f/a/d/e/f/d/ | c/B/c/d/e/f/ | %26
 g/b/e/f/g/e/ | _d/c/=d/=e/f/g/ | a/c'/f/g/a/f/ | e/_d/c/=B/g- | g/c/f/e/d/c/ | =B/c/d/B/G | c'cd | %33
 e2 f | gA z | fG z | eF z | dE z | z c/=B/c/d/ | =B/=A/G z | c'cd | e2 f | gA z | fG z | eF z | %45
 dE z | z/ c/D/F/c/=B/ | c2 z | z/ e/c/G/A/E/ | F/A/d z | z/ d/B/^F/G/D/ | =E/G/c z | %52
 z/ c/A/=E/F/C/ | D/F/B z | z/ B/c/d/e/f/ | g/e/f/d/B/d/ | f/a/g/e/B/d/ | e/g/f/d/A/c/ | %58
 d/f/e/c/_G/=A/ | c/e/d/B/F/A/ | B/e/B/G/E/D/ | E/B/G/E/[I:staff +1]B,/A,/ | %62
 B,/[I:staff -1]G/E/[I:staff +1]B,/A,/[I:staff -1]D/ | %63
[I:staff +1] A,/[I:staff -1]E/[I:staff +1]B,/G,/E,/[I:staff -1] z/ | z/ G/=A/=B/c/d/ | %65
 e/d/c/d/e/f/ | g/G/A/c/f- | f/F/G/B/e- | e/E/F/=B/d- | d/D/E/G/c- | c/=B/c/e/a/c/ | =B/=A/G z | %72
 c'cd | e2 f | gA z | fG z | eF z | dE z | z/ c/D/F/c/=B/ | c3 | e3- | e2 d/e/4f/4 | d3- | %83
 de/f/g/e/ |{d} c3- | c(3d/c/B/ (3c/B/=A/ | (3B/=A/G/ (3c/B/A/ (3B/A/G/ | F>=Ad/c/ | %88
 B/=A/B/d/c/e/ | d/B/G/g/=A/g/ | B/g/c/d/e/c/ | =A/f/B/c/d/B/ | G/e/=A/B/c/A/ | ^F/d/G/=A/B/G/ | %94
 D/c/B/=A/G/^F/ | G3- | G/c'/=b/=a/g/f/ | e2 f | g/B/A z | f/A/G z | e/G/F z | d/F/E z | %102
 z/ g/f/e/d/c/ | =B/c/d/B/G- | G/c/_B/A/G/F/ | E2 F | G/[I:staff +1]B,/A,[I:staff -1] z | %107
 F/[I:staff +1]A,/G,[I:staff -1] z | E/[I:staff +1]G,/F,[I:staff -1] z | %109
 D/[I:staff +1]F,/E,[I:staff -1] z | z3 | z3 |] %112
V:2
 z3 |[K:treble] cCD | E z F | D z E | C z D | =B, z[K:bass] C | A,F,D, | G, z/ F/E/D/ | C z z | %9
[K:treble] cCD | E z F | D z E | C z D | =B, z[K:bass] C | A,F,G, | C,G,,C,, | C,,2 z | G,F,E, | %18
 D,C,B,, | E,G,F, | =E,G,C, | F,A,_D, | B,C,C | B,/A,/B,/A,/G,/F,/ | B,F,A, | D,F,B,, | E,,G,B, | %27
 =E,G,C, | F,,A,C | F,A,D, | E,A,,F, | G,,G,[K:treble] z/ F/ | E/F/G/=A/=B/G/ | cCD | E z F | %35
 D z E | C z D | =B, z[K:bass] C | A,F,D, | G, z/ F/E/D/ | C z z |[K:treble] cCD | E z F | D z E | %44
 C z D | =B, z[K:bass] C | A,F,G, | C,/E,/G,/C,/E,/G,/ | CC,C- | CC,/C/B,/A,/ | B,B,,B,- | %51
 B,B,,/B,/A,/G,/ | A,A,,A,- | A,A,,/A,/G,/F,/ | G,F,E, | B,B,,B,- | B,E,F, | A,B, z | A,G,E, | %59
 B,,B,A, | G,G,,G,- | G,A,,G,- | G,B,,F, | E,2 z/ D,/ | E,/F,/E,/D,/C,/=B,,/ | C,/G,/=A,/=B,/C/D/ | %66
 EF, z/ E/ | DE, z/ D/ | CD, z/ C/ | =B,C, z/ E,/ | A,G,F, | G,/F,/G,/_A,/F,/G,/ | %72
 E,/D,/E,/F,/D,/E,/ | C,CD | E z F | D z F | C z D | =B, z C | A,F,G, | C,G,,/F,,/E,,/D,,/ | %80
 C,,CB, | =A,G,F, | B,,B,=A, | G,F,E, | =A,,=A,G, | ^F,=E,D, | G,_E,C, | D,/E,/D,/C,/B,,/=A,,/ | %88
 G,,G,=A, | B,2 C | DE, z | CD, z | B,C, z | =A,B,, z | z C,D, | G,,/_A,/G,/F,/E,/D,/ | E,F,G, | %97
 C,/[K:treble]c/=B/=A/G/F/ | E>GF/E/ | D>FE/D/ | C>ED/C/ | =B,>DC/_B,/ | A,AF | G/A/G/F/E/D/ | %104
 C/E/D/C/B,/A,/ | G,/C/B,/A,/G,/F,/ | E,>G,F,/E,/ | D,>F,E,/D,/ | C,>E,D,/C,/ | =B,,>D,C,/_B,,/ | %110
 z !fermata![E,A,C]!fermata![D,G,=B,] | !fermata![E,G,C]3 |] %112
V:3
 x3 | x3 | x3 | x3 | x3 | x3 | x3 | x3 | x3 | x3 | x3 | x3 | x3 | x3 | x3 | x3 | x3 | x3 | x3 | %19
 x3 | x3 | x3 | x3 | x3 | x3 | x3 | x3 | x3 | x3 | x3 | x3 | x3 | x3 | x3 | x3 | x3 | x3 | x3 | %38
 x3 | x3 | x3 | x3 | x3 | x3 | x3 | x3 | x3 | x3 | x3 | x3 | x3 | x3 | x3 | x3 | x3 | x3 | x3 | %57
 x3 | x3 | x3 | x3 | x3 | x3 | x3 | x3 | x3 | x3 | x3 | x3 | x3 | x3 | x3 | x3 | x3 | x3 | x3 | %76
 x3 | x3 | x3 | x3 | z z G | c3- | c2 F | B3- | B=A/G/^F/G/ | =A2 z | x3 | x3 | x3 | x3 | x3 | x3 | %92
 x3 | x3 | x3 | x3 | x3 | x3 | x3 | x3 | x3 | x3 | x3 | x3 | x3 | x3 | x3 | x3 | x3 | x3 | x3 | %111
 x3 |] %112
V:4
 x3 |[K:treble] x3 | x3 | x3 | x3 | x2[K:bass] x | x3 | x3 | x3 |[K:treble] x3 | x3 | x3 | x3 | %13
 x2[K:bass] x | x3 | x3 | x3 | x3 | x3 | x3 | x3 | x3 | x3 | x3 | x3 | x3 | x3 | x3 | x3 | x3 | %30
 x3 | x2[K:treble] x | x3 | x3 | x3 | x3 | x3 | x2[K:bass] x | x3 | x3 | x3 |[K:treble] x3 | x3 | %43
 x3 | x3 | x2[K:bass] x | x3 | x3 | x3 | x3 | x3 | x3 | x3 | x3 | x3 | x3 | x3 | x3 | x3 | x3 | %60
 x3 | x3 | x3 | x3 | x3 | x3 | x3 | x3 | x3 | x3 | x3 | x3 | x3 | x3 | x3 | x3 | x3 | x3 | x3 | %79
 x3 | x3 | x3 | x3 | x3 | x3 | x3 | x3 | x3 | x3 | x3 | x3 | x3 | x3 | x3 | x3 | x3 | x3 | %97
 x/[K:treble] x5/2 | x3 | x3 | x3 | x3 | x3 | x3 | x3 | x3 | x3 | x3 | x3 | x3 | A,,/C,/F,,G,, | %111
 C,,3 |] %112

